src/assets/icons/american-express.svg

<svg width="32" height="22" viewBox="0 0 32 22" fill="none" xmlns="http://www.w3.org/2000/svg">
<g clip-path="url(#clip0_901_804)">
<path fill-rule="evenodd" clip-rule="evenodd" d="M19.671 12.756C19.88 12.882 20.015 13.058 20.015 13.378L20.017 13.379C20.017 13.829 19.717 14.054 19.537 14.126L19.517 14.134C19.667 14.188 19.787 14.288 19.847 14.368C19.938 14.508 19.953 14.634 19.955 14.884V15.439H19.295V15.089C19.295 15.0717 19.2952 15.0536 19.2953 15.0349C19.2968 14.8694 19.2988 14.6558 19.191 14.539C19.103 14.438 18.953 14.414 18.713 14.414H17.993V15.441H17.318V12.621H18.861C19.207 12.621 19.461 12.636 19.671 12.756ZM19.117 13.783L19.145 13.785L19.147 13.786C19.236 13.731 19.281 13.636 19.281 13.516C19.287 13.408 19.229 13.309 19.131 13.261C19.041 13.211 18.921 13.211 18.801 13.211H17.977V13.841H18.787C18.922 13.841 19.027 13.836 19.117 13.783ZM23 14.837H24.297C24.424 14.837 24.514 14.82 24.574 14.767C24.619 14.737 24.654 14.664 24.654 14.587C24.654 14.513 24.618 14.437 24.572 14.407C24.527 14.362 24.451 14.347 24.347 14.347C24.3083 14.3461 24.2691 14.3454 24.2296 14.3447C23.6238 14.334 22.94 14.3219 22.94 13.477C22.94 13.074 23.194 12.637 23.898 12.637H25.248V13.239H24.018C23.923 13.233 23.829 13.253 23.746 13.299C23.673 13.343 23.656 13.419 23.656 13.509C23.656 13.614 23.716 13.689 23.806 13.719C23.881 13.749 23.957 13.749 24.061 13.749L24.437 13.764C24.775 13.778 25.014 13.838 25.167 13.971C25.288 14.105 25.354 14.273 25.354 14.553C25.354 15.159 24.98 15.437 24.304 15.437H23V14.837ZM25.1579 13.9576C25.1589 13.9591 25.1599 13.9607 25.1609 13.9623C25.1628 13.9656 25.1648 13.9688 25.167 13.971C25.1718 13.9758 25.1773 13.9783 25.1826 13.9807C25.1852 13.9819 25.1877 13.983 25.1901 13.9844L25.198 13.991C25.1957 13.9881 25.193 13.9861 25.1901 13.9844L25.1579 13.9576ZM25.1579 13.9576C25.1573 13.9567 25.1566 13.9558 25.156 13.955V13.956L25.1579 13.9576ZM27.828 12.084H27.832V12.082H27.893V12.637H27.829V12.636H27.828V12.084ZM27.828 12.636H26.546C25.856 12.636 25.586 13.073 25.586 13.476C25.586 14.3208 26.2732 14.333 26.8786 14.3437C26.9181 14.3444 26.9574 14.3451 26.996 14.346C27.1 14.346 27.176 14.361 27.22 14.406C27.266 14.436 27.296 14.512 27.296 14.586C27.296 14.656 27.262 14.724 27.206 14.766C27.161 14.822 27.07 14.836 26.936 14.836H25.648V15.441H26.935C27.355 15.441 27.669 15.323 27.835 15.081H27.865C27.955 14.947 28 14.781 28 14.558C28 14.318 27.955 14.168 27.865 14.032V14.03V14.025C27.8511 14.0134 27.8402 14.0023 27.8297 13.9915C27.8174 13.9789 27.8056 13.9668 27.79 13.955C27.64 13.802 27.4 13.74 27.026 13.73L26.666 13.718C26.546 13.718 26.472 13.711 26.396 13.688C26.306 13.658 26.246 13.583 26.246 13.478C26.246 13.388 26.276 13.318 26.336 13.274C26.412 13.229 26.486 13.224 26.606 13.224H27.829V12.637H27.828V12.636ZM22.597 12.625V13.208L21.028 13.209V13.719H22.56V14.303H21.027V14.873H22.597V15.458H20.362V12.625H22.597ZM18.195 7.787H17.51L17.511 10.6H18.195V7.787ZM17.119 8.549L17.126 8.543L17.127 8.542C17.127 8.992 16.827 9.222 16.655 9.292C16.783 9.339 16.895 9.422 16.985 9.529C17.079 9.67 17.095 9.795 17.095 10.045V10.598H16.418V10.244C16.418 10.2277 16.4181 10.2108 16.4183 10.1933C16.4196 10.0286 16.4213 9.81898 16.311 9.696C16.214 9.606 16.064 9.576 15.824 9.576H15.104V10.61H14.43V7.79H15.969C16.309 7.79 16.562 7.8 16.779 7.925C16.989 8.049 17.119 8.235 17.119 8.549ZM16.256 8.939H16.271V8.938C16.358 8.892 16.405 8.794 16.405 8.672C16.405 8.55 16.345 8.462 16.255 8.422C16.165 8.376 16.045 8.372 15.925 8.372H15.1V8.995H15.926C16.061 8.995 16.166 8.993 16.256 8.939ZM20.552 8.373H19.92H19.919C19.675 8.373 19.536 8.403 19.403 8.538C19.289 8.658 19.209 8.883 19.209 9.168C19.209 9.47 19.27 9.68 19.395 9.83C19.501 9.934 19.686 9.964 19.863 9.964H20.163L21.106 7.744H22.11L23.243 10.4V7.789H24.263L25.443 9.749V7.786H26.127V10.599L26.125 10.597H25.175L23.903 8.487V10.597H22.543L22.281 9.97H20.891L20.636 10.597H19.856C19.531 10.597 19.118 10.525 18.886 10.287C18.649 10.046 18.526 9.725 18.526 9.213C18.526 8.793 18.602 8.403 18.888 8.103C19.104 7.878 19.444 7.773 19.908 7.773H20.552V8.373ZM22.052 9.383L21.588 8.265L21.122 9.385H22.052V9.383ZM6.634 10.598L6.38 9.97L4.99 9.971L4.73 10.597H4.01L5.208 7.787H6.205L7.343 10.45V7.787H8.435L9.311 9.692L10.118 7.788H11.234V10.598H10.544L10.529 8.396L9.556 10.598H8.972L8 8.393V10.598H6.634ZM6.152 9.383L5.692 8.265H5.691L5.234 9.385H6.149L6.152 9.383ZM13.714 12.62H15.856L15.855 12.621C16.385 12.621 16.983 12.771 16.983 13.551L16.989 13.554C16.989 14.335 16.419 14.499 15.819 14.499H14.981V15.439H13.679L12.855 14.509L12 15.441H9.346V12.621H12.039L12.864 13.543L13.714 12.62ZM11.67 14.853L11.656 14.851H10.02V14.294H11.49V13.72H10.02V13.21H11.7L12.433 14.03L11.67 14.853ZM13.282 14.036L14.312 15.183V15.181V12.928L13.282 14.036ZM14.98 13.925H15.865V13.924C16.135 13.924 16.285 13.795 16.285 13.552C16.285 13.306 16.105 13.208 15.865 13.208H14.98V13.925ZM13.967 7.787V8.373H12.4V8.88H13.927V9.456H12.4V10.02H13.967V10.6H11.73V7.787H13.967Z" fill="#2E77BC"/>
</g>
<defs>
<clipPath id="clip0_901_804">
<rect width="32" height="22" fill="white"/>
</clipPath>
</defs>
</svg>

<svg xmlns="http://www.w3.org/2000/svg" width="32" height="22" fill="none"><g clip-path="url(#a)"><path fill="#2E77BC" fill-rule="evenodd" d="M19.671 12.756c.209.126.344.302.344.622l.002.001c0 .45-.3.675-.48.747l-.02.008a.75.75 0 0 1 .33.234c.091.14.106.266.108.516v.555h-.66V15.035c.002-.166.004-.38-.104-.496-.088-.101-.238-.125-.478-.125h-.72v1.027h-.675v-2.82h1.543c.346 0 .6.015.81.135Zm-.554 1.027.028.002.002.001c.089-.055.134-.15.134-.27a.266.266 0 0 0-.15-.255c-.09-.05-.21-.05-.33-.05h-.824v.63h.81c.135 0 .24-.005.33-.058ZM23 14.837h1.297c.127 0 .217-.017.277-.07.045-.03.08-.103.08-.18 0-.074-.036-.15-.082-.18-.045-.045-.121-.06-.225-.06l-.117-.002c-.606-.011-1.29-.023-1.29-.868 0-.403.254-.84.958-.84h1.35v.602h-1.23a.495.495 0 0 0-.272.06c-.073.044-.09.12-.09.21 0 .105.06.18.15.21.075.03.151.03.255.03l.376.015c.338.014.577.074.73.207.121.134.187.302.187.582 0 .606-.374.884-1.05.884H23v-.6Zm2.158-.88a.193.193 0 0 1 .009.014.05.05 0 0 0 .016.01l.007.003.008.007a.027.027 0 0 0-.008-.007l-.032-.026Zm0 0-.002-.002v.001l.002.002Zm2.67-1.873h.004v-.002h.061v.555h-.064v-.001h-.001v-.552Zm0 .552h-1.282c-.69 0-.96.437-.96.84 0 .845.687.857 1.293.868l.117.002c.104 0 .18.015.224.06.046.03.076.106.076.18 0 .07-.034.138-.09.18-.045.056-.136.07-.27.07h-1.288v.605h1.287c.42 0 .734-.118.9-.36h.03c.09-.134.135-.3.135-.523 0-.24-.045-.39-.135-.526v-.007a.448.448 0 0 1-.035-.034c-.013-.012-.024-.024-.04-.036-.15-.153-.39-.215-.764-.225l-.36-.012a.881.881 0 0 1-.27-.03.212.212 0 0 1-.15-.21c0-.09.03-.16.09-.204.076-.045.15-.05.27-.05h1.223v-.587h-.001v-.001Zm-5.231-.011v.583l-1.569.001v.51h1.532v.584h-1.533v.57h1.57v.585h-2.235v-2.833h2.235Zm-4.402-4.838h-.685l.001 2.813h.684V7.787Zm-1.076.762.007-.006.001-.001c0 .45-.3.68-.472.75a.79.79 0 0 1 .33.237c.094.141.11.266.11.516v.553h-.677V10.194c.002-.165.003-.375-.107-.498-.097-.09-.247-.12-.487-.12h-.72v1.034h-.674V7.79h1.539c.34 0 .593.01.81.135.21.124.34.31.34.624Zm-.863.39h.015v-.001c.087-.046.134-.144.134-.266 0-.122-.06-.21-.15-.25-.09-.046-.21-.05-.33-.05H15.1v.623h.826c.135 0 .24-.002.33-.056Zm4.296-.566h-.633c-.244 0-.383.03-.516.165-.114.12-.194.345-.194.63 0 .302.061.512.186.662.106.104.291.134.468.134h.3l.943-2.22h1.004l1.133 2.656V7.789h1.02l1.18 1.96V7.786h.684v2.813l-.002-.002h-.95l-1.272-2.11v2.11h-1.36l-.262-.627h-1.39l-.255.627h-.78c-.325 0-.738-.072-.97-.31-.237-.241-.36-.562-.36-1.074 0-.42.076-.81.362-1.11.216-.225.556-.33 1.02-.33h.644v.6Zm1.5 1.01-.464-1.118-.466 1.12h.93v-.002ZM6.634 10.598 6.38 9.97l-1.39.001-.26.626h-.72l1.198-2.81h.997l1.138 2.663V7.787h1.092l.876 1.905.807-1.904h1.116v2.81h-.69l-.015-2.202-.973 2.202h-.584L8 8.393v2.205H6.634Zm-.482-1.215-.46-1.118h-.001l-.457 1.12h.915l.003-.002Zm7.562 3.237h2.142l-.001.001c.53 0 1.128.15 1.128.93l.006.003c0 .781-.57.945-1.17.945h-.838v.94h-1.302l-.824-.93-.855.932H9.346v-2.82h2.693l.825.922.85-.923Zm-2.044 2.233-.014-.002H10.02v-.557h1.47v-.574h-1.47v-.51h1.68l.733.82-.763.823Zm1.612-.817 1.03 1.147v-2.255l-1.03 1.108Zm1.698-.111h.885v-.001c.27 0 .42-.129.42-.372 0-.246-.18-.344-.42-.344h-.885v.717Zm-1.013-6.138v.586H12.4v.507h1.527v.576H12.4v.564h1.567v.58H11.73V7.787h2.237Z" clip-rule="evenodd"/></g><defs><clipPath id="a"><path fill="#fff" d="M0 0h32v22H0z"/></clipPath></defs></svg>
